api/icons/UXWing Logo.svg

<svg width="113" height="26" viewBox="0 0 113 26" fill="none" xmlns="http://www.w3.org/2000/svg">
<g clip-path="url(#clip0)">
<path d="M45.8164 12.6919V17.3338C44.8832 17.8602 43.5431 18.0995 42.2272 18.0995C40.6481 18.0995 39.0686 17.3816 38.8293 15.9939C38.7097 15.3239 38.6619 14.5344 38.6378 13.7447V9.0069L35.8381 8.64796V13.7447C35.8381 14.7256 35.9578 15.6828 36.173 16.4963C36.6038 18.2192 39.4273 19.1045 42.2269 19.1045C43.5431 19.1045 44.8589 18.937 45.9357 18.5303L48.6155 18.8892V8.8154H45.8158V12.6919H45.8164ZM54.1436 8.8154H50.9131L54.2392 14.5582L51.1764 18.937H52.4926L54.8377 15.5872L56.7521 18.937H60.0063L56.6084 13.0506L58.0679 10.945L59.5515 8.8154H58.2594L56.0101 12.0218L54.1439 8.8154H54.1436ZM69.625 11.4476L74.8654 18.9373H76.8276C76.8754 18.8655 76.8994 18.7939 76.8994 18.7221L77.4021 8.81569H74.6024L74.2197 16.1617L69.6974 9.70103L69.6256 9.60542L65.0552 16.1617L64.6725 8.81569H61.8728L62.3755 18.7221C62.3755 18.7939 62.3995 18.8655 62.4233 18.9373H64.4092L69.6256 11.4476H69.625ZM82.5941 18.9373V9.00719L79.7947 8.6242V18.9373H82.5941V18.9373ZM82.8097 4.96323C82.5704 4.00605 79.8185 4.00605 79.5795 4.93918C79.4839 5.39402 79.4839 5.99196 79.5795 6.42275C79.8188 7.33213 82.5944 7.35588 82.8097 6.37495C82.9293 5.96821 82.9293 5.39402 82.8097 4.96323ZM87.6671 14.8456V10.1796C88.6005 9.67698 89.9164 9.41393 91.2565 9.41393C92.8357 9.41393 94.4151 10.1556 94.6542 11.5435C94.7738 12.1896 94.8216 12.979 94.8216 13.7687V18.9373H97.6213V13.7687C97.6213 12.8116 97.5257 11.8306 97.3101 11.0171C96.8794 9.29428 94.0559 8.40895 91.2562 8.40895C89.7967 8.40895 88.3609 8.6242 87.2363 9.10279L84.8674 8.79165V18.9373H87.6671V14.8456V14.8456ZM112.6 18.5784V13.6969C112.6 12.7638 112.505 11.8066 112.313 11.0171C111.858 9.22244 109.035 8.33711 106.212 8.33711C103.388 8.33711 100.588 9.22244 100.158 10.9691C99.9424 11.8066 99.8465 12.7875 99.8465 13.7447C99.8465 14.7256 99.9421 15.6828 100.158 16.4963C100.612 18.2192 103.412 19.1045 106.235 19.1045C107.48 19.1045 108.748 18.937 109.801 18.5781C109.801 19.2719 109.729 19.942 109.633 20.5162C109.394 21.9517 107.791 22.6699 106.212 22.6699V23.6748C109.035 23.6748 111.858 22.7895 112.289 21.0429C112.481 20.3012 112.576 19.4397 112.6 18.5784ZM109.801 13.7209V17.3341C108.868 17.8605 107.551 18.0998 106.235 18.0998C104.656 18.0998 103.053 17.3819 102.814 15.9942C102.694 15.3242 102.646 14.5347 102.646 13.745C102.646 12.9553 102.694 12.1655 102.814 11.4957C103.053 10.084 104.656 9.36613 106.212 9.36613C107.791 9.36613 109.37 10.084 109.633 11.5195C109.753 12.1896 109.801 12.9553 109.801 13.7209V13.7209Z" fill="#1B1B1B"/>
<path fill-rule="evenodd" clip-rule="evenodd" d="M15.4361 10.4609C17.8766 7.09482 20.5598 3.81538 20.072 0C25.6424 3.59 24.7628 8.99527 19.9633 12.3964C22.0703 12.4236 24.1081 9.84873 24.2857 8.01752C28.7569 10.743 24.9187 15.1622 21.9063 16.7199C23.21 16.5681 24.4957 15.9334 25.6907 15.0744C27.8302 18.3078 24.1773 20.2305 22.2963 20.1135L24.8396 20.5501C23.7564 23.9376 21.3391 25.836 17.4858 25.8508C18.2236 25.353 18.8369 24.634 19.2903 23.7626C20.0395 22.3225 20.3509 20.4524 20.0479 18.4926L20.0476 18.4914C19.7585 16.622 18.7758 14.4425 17.4052 12.6055C16.8154 11.8149 16.1511 11.0834 15.4355 10.4612L15.4361 10.4609Z" fill="url(#paint0_linear)"/>
<path d="M13.5578 14.3919C13.4697 13.5732 13.0673 11.6577 12.5751 9.44087C15.9293 10.7584 18.8843 15.243 19.4014 18.5911C19.9634 22.2249 18.2603 25.4997 15.593 25.9119C11.5589 26.5357 9.04278 23.7438 7.27762 20.4658C4.95652 16.5635 3.63896 15.1066 0 9.74709C3.1117 8.75051 6.60493 10.9737 8.33011 12.9923C8.14123 11.7707 6.93259 10.5449 5.73872 7.76523C9.08479 7.43294 12.5922 11.4992 13.5581 14.3913L13.5578 14.3919Z" fill="#83C738"/>
</g>
<defs>
<linearGradient id="paint0_linear" x1="21.4318" y1="6.95229" x2="22.8632" y2="23.9694" gradientUnits="userSpaceOnUse">
<stop stop-color="#00AAE2"/>
<stop offset="1" stop-color="#0096DB"/>
</linearGradient>
<clipPath id="clip0">
<rect width="112.6" height="26" fill="white"/>
</clipPath>
</defs>
</svg>

<svg width="113" height="26" fill="none" xmlns="http://www.w3.org/2000/svg"><g clip-path="url(#clip0)"><path d="M45.816 12.692v4.642c-.933.526-2.273.765-3.589.765-1.579 0-3.158-.717-3.398-2.105-.12-.67-.167-1.46-.191-2.25V9.008l-2.8-.359v5.097c0 .98.12 1.938.335 2.751.43 1.723 3.254 2.609 6.054 2.609 1.316 0 2.632-.168 3.709-.575l2.68.36V8.814h-2.8v3.877zm8.328-3.877h-3.23l3.325 5.743-3.063 4.379h1.317l2.345-3.35 1.914 3.35h3.254l-3.398-5.886 1.46-2.106 1.483-2.13H58.26l-2.249 3.207-1.866-3.207zm15.481 2.633l5.24 7.49h1.963a.386.386 0 0 0 .071-.216l.503-9.906h-2.8l-.382 7.346L69.697 9.7l-.071-.096-4.57 6.557-.383-7.346h-2.8l.503 9.906c0 .072.024.143.047.215h1.986l5.217-7.49h-.001zm12.97 7.49v-9.93l-2.8-.384v10.313h2.8zm.215-13.975c-.24-.957-2.992-.957-3.23-.024a3.872 3.872 0 0 0 0 1.484c.239.91 3.014.933 3.23-.048.12-.407.12-.981 0-1.412zm4.857 9.883V10.18c.933-.503 2.25-.766 3.59-.766 1.579 0 3.158.742 3.397 2.13.12.646.168 1.435.168 2.225v5.168h2.8V13.77c0-.957-.096-1.938-.312-2.752-.43-1.723-3.254-2.608-6.054-2.608-1.46 0-2.895.215-4.02.694l-2.369-.311v10.145h2.8v-4.091zm24.933 3.732v-4.881c0-.933-.095-1.89-.287-2.68-.455-1.795-3.278-2.68-6.101-2.68-2.824 0-5.624.885-6.054 2.632-.216.838-.311 1.819-.311 2.776 0 .98.095 1.938.311 2.751.454 1.723 3.254 2.609 6.077 2.609 1.245 0 2.513-.168 3.566-.527 0 .694-.072 1.364-.168 1.938-.239 1.436-1.842 2.154-3.421 2.154v1.005c2.823 0 5.646-.886 6.077-2.632.192-.742.287-1.603.311-2.465zm-2.799-4.857v3.613c-.933.526-2.25.766-3.566.766-1.579 0-3.182-.718-3.421-2.106-.12-.67-.168-1.46-.168-2.249 0-.79.048-1.58.168-2.25.239-1.411 1.842-2.129 3.398-2.129 1.579 0 3.158.718 3.421 2.154.12.67.168 1.435.168 2.2z" fill="#1B1B1B"/><path fill-rule="evenodd" clip-rule="evenodd" d="M15.436 10.46C17.876 7.096 20.56 3.816 20.072 0c5.57 3.59 4.69 8.995-.109 12.396 2.107.028 4.145-2.547 4.323-4.378 4.47 2.725.633 7.144-2.38 8.702 1.304-.152 2.59-.787 3.785-1.646 2.14 3.234-1.514 5.156-3.395 5.04l2.544.436c-1.084 3.388-3.5 5.286-7.354 5.3.738-.497 1.35-1.216 1.804-2.087.75-1.44 1.06-3.31.758-5.27v-.002c-.29-1.869-1.272-4.048-2.643-5.886a13.718 13.718 0 0 0-1.97-2.144h.001z" fill="url(#paint0_linear)"/><path d="M13.558 14.392c-.088-.819-.49-2.734-.983-4.951 3.354 1.317 6.31 5.802 6.826 9.15.562 3.634-1.14 6.909-3.808 7.32-4.034.625-6.55-2.167-8.315-5.445C4.957 16.564 3.639 15.106 0 9.747c3.112-.996 6.605 1.227 8.33 3.245-.189-1.221-1.397-2.447-2.591-5.227 3.346-.332 6.853 3.734 7.82 6.626h-.001z" fill="#83C738"/></g><defs><linearGradient id="paint0_linear" x1="21.432" y1="6.952" x2="22.863" y2="23.969" gradientUnits="userSpaceOnUse"><stop stop-color="#00AAE2"/><stop offset="1" stop-color="#0096DB"/></linearGradient><clipPath id="clip0"><path fill="#fff" d="M0 0H112.6V26H0z"/></clipPath></defs></svg>
